Simply black circles/symbolic/panel/battery-good-charging-symbolic.svg

<?xml version="1.0" encoding="UTF-8" standalone="no"?>
<svg
   xmlns:dc="http://purl.org/dc/elements/1.1/"
   xmlns:cc="http://creativecommons.org/ns#"
   xmlns:rdf="http://www.w3.org/1999/02/22-rdf-syntax-ns#"
   xmlns:svg="http://www.w3.org/2000/svg"
   xmlns="http://www.w3.org/2000/svg"
   xmlns:sodipodi="http://sodipodi.sourceforge.net/DTD/sodipodi-0.dtd"
   xmlns:inkscape="http://www.inkscape.org/namespaces/inkscape"
   width="24"
   height="24"
   version="1.1"
   id="svg10"
   sodipodi:docname="battery-good-charging-symbolic.svg"
   inkscape:version="0.92.3 (2405546, 2018-03-11)">
  <metadata
     id="metadata16">
    <rdf:RDF>
      <cc:Work
         rdf:about="">
        <dc:format>image/svg+xml</dc:format>
        <dc:type
           rdf:resource="http://purl.org/dc/dcmitype/StillImage" />
        <dc:title></dc:title>
      </cc:Work>
    </rdf:RDF>
  </metadata>
  <defs
     id="defs14" />
  <sodipodi:namedview
     pagecolor="#ffffff"
     bordercolor="#666666"
     borderopacity="1"
     objecttolerance="10"
     gridtolerance="10"
     guidetolerance="10"
     inkscape:pageopacity="0"
     inkscape:pageshadow="2"
     inkscape:window-width="1366"
     inkscape:window-height="719"
     id="namedview12"
     showgrid="false"
     showguides="true"
     inkscape:guide-bbox="true"
     inkscape:snap-global="true"
     inkscape:zoom="15.6742"
     inkscape:cx="12"
     inkscape:cy="12"
     inkscape:window-x="0"
     inkscape:window-y="25"
     inkscape:window-maximized="1"
     inkscape:current-layer="svg10" />
  <path
     style="opacity:1;fill:#808080;fill-opacity:0.99579827;stroke:none;stroke-width:1.5;stroke-miterlimit:4;stroke-dasharray:none;stroke-opacity:1"
     d="M 12 0.08984375 C 5.352 0.08984375 0 5.382056 0 11.955078 C 0 18.5281 5.352 23.820312 12 23.820312 C 12.513971 23.820312 12.950661 23.594614 13.447266 23.533203 L 15.423828 20.173828 C 14.367621 20.602268 13.215945 20.853516 12 20.853516 C 7.014 20.853516 3 16.884845 3 11.955078 C 3 7.0253117 7.014 3.0566406 12 3.0566406 C 15.793562 3.0566406 18.997768 5.3646346 20.326172 8.6347656 L 22.482422 6.4785156 C 20.471997 2.7242122 16.611691 0.08984375 12 0.08984375 z M 22.486328 9.9140625 L 14.544922 17.310547 L 19.082031 17.310547 L 15.679688 23.650391 L 23.621094 15.197266 L 20.216797 15.197266 L 22.486328 9.9140625 z M 5.2714844 10.285156 C 5.1110274 10.815671 5 11.36568 5 11.955078 C 5 12.611985 5.2055751 13.203478 5.3769531 13.804688 L 15.158203 13.804688 L 18.677734 10.285156 L 5.2714844 10.285156 z M 6.2519531 15.699219 C 7.1923065 17.167194 8.7372847 18.056603 10.484375 18.478516 L 13.261719 15.699219 L 6.2519531 15.699219 z "
     id="rect814" />
</svg>

<svg xmlns="http://www.w3.org/2000/svg" width="24" height="24"><path d="M12 .09C5.352.09 0 5.382 0 11.955S5.352 23.82 12 23.82c.514 0 .95-.225 1.447-.287l1.977-3.36a9.081 9.081 0 0 1-3.424.68c-4.986 0-9-3.968-9-8.898s4.014-8.898 9-8.898a8.953 8.953 0 0 1 8.326 5.578l2.156-2.156C20.472 2.724 16.612.089 12 .089zm10.486 9.824l-7.941 7.397h4.537l-3.402 6.34 7.941-8.454h-3.404l2.27-5.283zm-17.215.371c-.16.53-.271 1.08-.271 1.67 0 .657.206 1.248.377 1.85h9.781l3.52-3.52H5.27zm.981 5.414c.94 1.468 2.485 2.358 4.232 2.78l2.778-2.78h-7.01z" fill="gray" fill-opacity=".996"/></svg>
